X: 77
P: No. LXXVII.
M: 6/8
L: 1/8
K: G
V: 1
f |\
g2f g2d | de=f e2d | def gde | dcB A2d |\
edc Bcd | edc Bcd | (e/f/g)G c2B | AGF G2 |]
V: 2 clef=bass middle=d
z |\
g3 G3 | d3- d>ef | g3 c3 | d3 G3 |\
g3 G3 | d3- d>ef | g3 c3 | d3 G2 |]
z |\
c3 g3 | c3 g3 | c'2b a2g | d'2d g2 |]

